X:72
M:6/8
L:1/8
Q:3/8=70
K:B_
f/e/|d2 c/B/ fdB|cBA G2A|BGG D2B,|D/E/FF F2f|d2 c/B/ fdB|cBA G2A|
f|dBf dBg|dBb fdB|dBf dBg|dBd f2e|dBf dBg|dBb fdB|bag d2c|dg^f g2 f/e/|
dBf dBg|dBb fdB|dBf dBg|dBd f2g/a/|b>ag afd|g>fd fdc|B/c/dF D2 C|

